X:1
T:A beauteous fair has pierced my heart
T:John Wall Callcott (1766-1821)
T:From Thomas Warren's "A collection of catches, canons and glees"
T:A beauteous fair has pierced my heart
T:Catch
C:John Wall Callcott (1766-1821)
Z:From Thomas Warren's "A collection of catches, canons and glees"
%%score [ 1 2 3 ]
L:1/8
M:4/4
K:C
V:1 treble nm="P1"
V:2 treble nm="P2"
V:3 treble nm="P3"
V:1
 z2 G2 F2 E2 | D4 E4 |{G} F4{E} D4 | E6 FG | A4 G4 | F4 E4 | (D2 E2) (F2 D2) | E8 | c2 B2 c2 G2 | %9
w: A beau- teous|fair has||heart, 'twas _|Ma- ri-|an- na|threw _ the _|dart,|Ma- ri- an- na|
 z8 | d2 ^c2 d2 A2 | z8 | c4 G4 | (A2 B2) (c2 A2) | G4 B4 | c8 | e4{d} c4 | B4 c4 |{e} d4{c} B4 | %19
w: |Ma- ri- an- na||Ma- ri-|an- * na _|threw the|dart.|Don't *|now my||
 c6 de | f4 e4 | d4 c4 | (B2 c2) (d2 B2) | c8 | z8 | A2 c2 z4 | z8 | B2 G2 z4 | e4 e4 | %29
w: tray, but _|she is|Ro- ger's|daugh- * ter _|gay,||Ro- ger's||Ro- ger's|she is|
 (f2 g2) (a2 f2) | e4 d4 | c8 | c4 (d2 e2) | f4 e4 | d4 G4 | c4 z4 | F4 c4 | B4 c4 | G6 G2 | G8 | %40
w: Ro- * ger's _|daugh- ter|gay.|Does she _|in yon|cot- tage|dwell?|If she|does I|know her|well,|
 z8 | z4 A2 f2 | z8 | z4 B2 g2 | c4 c4 | F6 F2 | c4 G4 | C8 | z2 G2 F2 E2 | D4 E4 |{G} F4{E} D4 | %51
w: |does she?||does she?|If she|does I|know her|well.|A beau- teous|fair has||
 E6 FG | A4 G4 | F4 E4 | (D2 E2) (F2 D2) | E8 | c2 B2 c2 G2 | z8 | d2 ^c2 d2 A2 | z8 | c4 G4 | %61
w: heart, 'twas _|Ma- ri-|an- na|threw _ the _|dart,|Ma- ri- an- na||Ma- ri- an- na||Ma- ri-|
 (A2 B2) (c2 A2) | G4 B4 | c8 | e4{d} c4 | B4 c4 |{e} d4{c} B4 | c6 de | f4 e4 | d4 c4 | %70
w: an- * na _|threw the|dart.|Don't *|now my||tray, but _|she is|Ro- ger's|
 (B2 c2) (d2 B2) | c8 | z8 | A2 c2 z4 | z8 | B2 G2 z4 | e4 e4 | (f2 g2) (a2 f2) | e4 d4 | c8 | %80
w: daugh- * ter _|gay,||Ro- ger's||Ro- ger's|she is|Ro- * ger's _|daugh- ter|gay.|
 c4 (d2 e2) | f4 e4 | d4 G4 | c4 z4 | F4 c4 | B4 c4 | G6 G2 | G8 | z8 | z4 A2 f2 | z8 | z4 B2 g2 | %92
w: Does she _|in yon|cot- tage|dwell?|If she|does I|know her|well,||does she?||does she?|
 c4 c4 | F6 F2 | c4 G4 |"^Continue ad lib." C8 | %96
w: If she|does I|know her|well.|
V:2
 z8 | z8 | z8 | z8 | z8 | z8 | z8 | z8 | z8 | z8 | z8 | z8 | z8 | z8 | z8 | z8 | z2 G2 F2 E2 | %17
w: ||||||||||||||||A beau- teous|
 D4 E4 |{G} F4{E} D4 | E6 FG | A4 G4 | F4 E4 | (D2 E2) (F2 D2) | E8 | c2 B2 c2 G2 | z8 | %26
w: fair has||heart, 'twas _|Ma- ri-|an- na|threw _ the _|dart,|Ma- ri- an- na||
 d2 ^c2 d2 A2 | z8 | c4 G4 | (A2 B2) (c2 A2) | G4 B4 | c8 | e4{d} c4 | B4 c4 |{e} d4{c} B4 | %35
w: Ma- ri- an- na||Ma- ri-|an- * na _|threw the|dart.|Don't *|now my||
 c6 de | f4 e4 | d4 c4 | (B2 c2) (d2 B2) | c8 | z8 | A2 c2 z4 | z8 | B2 G2 z4 | e4 e4 | %45
w: tray, but _|she is|Ro- ger's|daugh- * ter _|gay,||Ro- ger's||Ro- ger's|she is|
 (f2 g2) (a2 f2) | e4 d4 | c8 | c4 (d2 e2) | f4 e4 | d4 G4 | c4 z4 | F4 c4 | B4 c4 | G6 G2 | G8 | %56
w: Ro- * ger's _|daugh- ter|gay.|Does she _|in yon|cot- tage|dwell?|If she|does I|know her|well,|
 z8 | z4 A2 f2 | z8 | z4 B2 g2 | c4 c4 | F6 F2 | c4 G4 | C8 | z2 G2 F2 E2 | D4 E4 |{G} F4{E} D4 | %67
w: |does she?||does she?|If she|does I|know her|well.|A beau- teous|fair has||
 E6 FG | A4 G4 | F4 E4 | (D2 E2) (F2 D2) | E8 | c2 B2 c2 G2 | z8 | d2 ^c2 d2 A2 | z8 | c4 G4 | %77
w: heart, 'twas _|Ma- ri-|an- na|threw _ the _|dart,|Ma- ri- an- na||Ma- ri- an- na||Ma- ri-|
 (A2 B2) (c2 A2) | G4 B4 | c8 | e4{d} c4 | B4 c4 |{e} d4{c} B4 | c6 de | f4 e4 | d4 c4 | %86
w: an- * na _|threw the|dart.|Don't *|now my||tray, but _|she is|Ro- ger's|
 (B2 c2) (d2 B2) | c8 | z8 | A2 c2 z4 | z8 | B2 G2 z4 | e4 e4 | (f2 g2) (a2 f2) | e4 d4 | c8 | %96
w: daugh- * ter _|gay,||Ro- ger's||Ro- ger's|she is|Ro- * ger's _|daugh- ter|gay.|
V:3
 z8 | z8 | z8 | z8 | z8 | z8 | z8 | z8 | z8 | z8 | z8 | z8 | z8 | z8 | z8 | z8 | z8 | z8 | z8 | %19
w: |||||||||||||||||||
 z8 | z8 | z8 | z8 | z8 | z8 | z8 | z8 | z8 | z8 | z8 | z8 | z8 | z2 G2 F2 E2 | D4 E4 | %34
w: |||||||||||||A beau- teous|fair has|
{G} F4{E} D4 | E6 FG | A4 G4 | F4 E4 | (D2 E2) (F2 D2) | E8 | c2 B2 c2 G2 | z8 | d2 ^c2 d2 A2 | %43
w: |heart, 'twas _|Ma- ri-|an- na|threw _ the _|dart,|Ma- ri- an- na||Ma- ri- an- na|
 z8 | c4 G4 | (A2 B2) (c2 A2) | G4 B4 | c8 | e4{d} c4 | B4 c4 |{e} d4{c} B4 | c6 de | f4 e4 | %53
w: |Ma- ri-|an- * na _|threw the|dart.|Don't *|now my||tray, but _|she is|
 d4 c4 | (B2 c2) (d2 B2) | c8 | z8 | A2 c2 z4 | z8 | B2 G2 z4 | e4 e4 | (f2 g2) (a2 f2) | e4 d4 | %63
w: Ro- ger's|daugh- * ter _|gay,||Ro- ger's||Ro- ger's|she is|Ro- * ger's _|daugh- ter|
 c8 | c4 (d2 e2) | f4 e4 | d4 G4 | c4 z4 | F4 c4 | B4 c4 | G6 G2 | G8 | z8 | z4 A2 f2 | z8 | %75
w: gay.|Does she _|in yon|cot- tage|dwell?|If she|does I|know her|well,||does she?||
 z4 B2 g2 | c4 c4 | F6 F2 | c4 G4 | C8 | z2 G2 F2 E2 | D4 E4 |{G} F4{E} D4 | E6 FG | A4 G4 | %85
w: does she?|If she|does I|know her|well.|A beau- teous|fair has||heart, 'twas _|Ma- ri-|
 F4 E4 | (D2 E2) (F2 D2) | E8 | c2 B2 c2 G2 | z8 | d2 ^c2 d2 A2 | z8 | c4 G4 | (A2 B2) (c2 A2) | %94
w: an- na|threw _ the _|dart,|Ma- ri- an- na||Ma- ri- an- na||Ma- ri-|an- * na _|
 G4 B4 | c8 | %96
w: threw the|dart.|

